X:1
T:Pour remercier la pluie au matin
T:Pour remercier la pluie au matin
T:Claude Debussy
C:Claude Debussy
%%score { ( 1 3 ) | 2 } { ( 4 7 ) | ( 5 6 ) }
L:1/8
Q:1/2=60
M:4/4
K:G
V:1 treble nm="Primo"
V:3 treble 
V:2 treble 
V:4 treble nm="Secondo"
V:7 treble 
V:5 bass 
V:6 bass 
V:1
"^Modérément animé""_Modérément animé"!pp!"_doux et monotone"[I:staff +1] B/[I:staff -1]([_A_B]/[I:staff +1]=A/[I:staff -1][_A_B]/[I:staff +1] =B/[I:staff -1][A_B]/[I:staff +1]=A/[I:staff -1][_AB]/[I:staff +1] =B/[I:staff -1][A_B]/[I:staff +1]=A/[I:staff -1][_AB]/[I:staff +1] =B/[I:staff -1][A_B]/[I:staff +1]=A/[I:staff -1][_AB]/ | %1
[I:staff +1] =B/[I:staff -1][_A_B]/[I:staff +1]=A/[I:staff -1][_AB]/[I:staff +1] =B/[I:staff -1][A_B]/[I:staff +1]=A/[I:staff -1][_AB]/[I:staff +1] =B/[I:staff -1][A_B]/[I:staff +1]=A/[I:staff -1][_AB]/[I:staff +1] =B/[I:staff -1][A_B]/[I:staff +1]=A/[I:staff -1][_AB]/ | %2
[I:staff +1] =B/[I:staff -1][_A_B]/[I:staff +1]=A/[I:staff -1][_AB]/[I:staff +1] =B/[I:staff -1][A_B]/[I:staff +1]=A/[I:staff -1][_AB]/[I:staff +1] =B/[I:staff -1][A_B]/[I:staff +1]=A/[I:staff -1][_AB]/[I:staff +1] =B/[I:staff -1][A_B]/[I:staff +1]=A/[I:staff -1][_AB]/ | %3
[I:staff +1] =B/[I:staff -1][_A_B]/[I:staff +1]=A/[I:staff -1][_AB]/[I:staff +1] =B/[I:staff -1][A_B]/[I:staff +1]=A/[I:staff -1][_AB]/[I:staff +1] =B/[I:staff -1][A_B]/[I:staff +1]=A/[I:staff -1][_AB]/[I:staff +1] =B/[I:staff -1][A_B]/[I:staff +1]=A/[I:staff -1][_AB]/) | %4
[I:staff +1] =B/[I:staff -1][_A_B]/[I:staff +1]=A/[I:staff -1][_AB]/[I:staff +1] =B/[I:staff -1][A_B]/[I:staff +1]=A/[I:staff -1][_AB]/[I:staff +1] =B/[I:staff -1][A_B]/[I:staff +1]=A/[I:staff -1][_AB]/[I:staff +1] =B/[I:staff -1][A_B]/[I:staff +1]=A/[I:staff -1][_AB]/ | %5
[I:staff +1] =B/[I:staff -1][_A_B]/[I:staff +1]=A/[I:staff -1][_AB]/[I:staff +1] =B/[I:staff -1][A_B]/[I:staff +1]=A/[I:staff -1][_AB]/[I:staff +1] =B/[I:staff -1][A_B]/[I:staff +1]=A/[I:staff -1][_AB]/[I:staff +1] =B/[I:staff -1][A_B]/[I:staff +1]=A/[I:staff -1][_AB]/ | %6
[I:staff +1] =B/[I:staff -1][_A_B]/[I:staff +1]=A/[I:staff -1][_AB]/[I:staff +1] =B/[I:staff -1][A_B]/[I:staff +1]=A/[I:staff -1][_AB]/[I:staff +1] =B/[I:staff -1][A_B]/[I:staff +1]=A/[I:staff -1][_AB]/[I:staff +1] =B/[I:staff -1][A_B]/[I:staff +1]=A/[I:staff -1][_AB]/ | %7
[I:staff +1] =B/[I:staff -1][_A_B]/[I:staff +1]=A/[I:staff -1][_AB]/[I:staff +1] =B/[I:staff -1][A_B]/[I:staff +1]=A/[I:staff -1][_AB]/[I:staff +1] =B/[I:staff -1][A_B]/[I:staff +1]=A/[I:staff -1][_AB]/[I:staff +1] =B/[I:staff -1][A_B]/[I:staff +1]=A/[I:staff -1][_AB]/ | %8
[I:staff +1] =B/[I:staff -1][_A_B]/[I:staff +1]=A/[I:staff -1][_AB]/[I:staff +1] =B/[I:staff -1][A_B]/[I:staff +1]=A/[I:staff -1][_AB]/[I:staff +1] =B/[I:staff -1][A_B]/[I:staff +1]=A/[I:staff -1][_AB]/[I:staff +1] =B/[I:staff -1][A_B]/[I:staff +1]=A/[I:staff -1][_AB]/ | %9
[I:staff +1] =B/[I:staff -1][_A_B]/[I:staff +1]=A/[I:staff -1][_AB]/[I:staff +1] =B/[I:staff -1][A_B]/[I:staff +1]=A/[I:staff -1][_AB]/[I:staff +1] =B/[I:staff -1][A_B]/[I:staff +1]=A/[I:staff -1][_AB]/[I:staff +1] =B/[I:staff -1][A_B]/[I:staff +1]=A/[I:staff -1][_AB]/ | %10
!pp! _b/_e/[I:staff +1]_e/[I:staff -1]e/[I:staff +1] B/[I:staff -1]e/[I:staff +1]e/[I:staff -1]e/[I:staff +1] B/[I:staff -1]e/[I:staff +1]e/[I:staff -1]e/ _a/_d/[I:staff +1]_d/[I:staff -1]d/ | %11
 _b/_e/[I:staff +1]_e/[I:staff -1]e/ c'/=f/[I:staff +1]=f/[I:staff -1]f/ d'/g/[I:staff +1]g/[I:staff -1]g/ c'/f/[I:staff +1]f/[I:staff -1]f/ | %12
 _b/_e/[I:staff +1]_e/[I:staff -1]e/[I:staff +1] _B/[I:staff -1]e/[I:staff +1]e/[I:staff -1]e/!<(! f/=B/[I:staff +1]=B/[I:staff -1]B/[I:staff +1] F/[I:staff -1]B/[I:staff +1]B/[I:staff -1]B/ | %13
 g/c/[I:staff +1]c/[I:staff -1]c/[I:staff +1] G/[I:staff -1]c/[I:staff +1]c/[I:staff -1]c/ b/=e/[I:staff +1]e/[I:staff -1]e/[I:staff +1] d/[I:staff -1]e/[I:staff +1]e/[I:staff -1]e/!<)! | %14
!pp! (d'/g/[I:staff +1]d/G/) B/[I:staff -1][_A_B]/[I:staff +1]A/[I:staff -1][AB]/[I:staff +1] B/[I:staff -1][AB]/[I:staff +1]A/[I:staff -1][AB]/[I:staff +1] B/[I:staff -1][AB]/[I:staff +1]A/[I:staff -1][AB]/ | %15
[I:staff +1] B/[I:staff -1][_A_B]/[I:staff +1]A/[I:staff -1][AB]/[I:staff +1] B/[I:staff -1][AB]/[I:staff +1]A/[I:staff -1][AB]/[I:staff +1] B/[I:staff -1][AB]/[I:staff +1]A/[I:staff -1][AB]/[I:staff +1] B/[I:staff -1][AB]/[I:staff +1]A/[I:staff -1][AB]/ | %16
[I:staff +1] B/[I:staff -1][_A_B]/[I:staff +1]A/[I:staff -1][AB]/[I:staff +1] B/[I:staff -1][AB]/[I:staff +1]A/[I:staff -1][AB]/[I:staff +1] B/[I:staff -1][AB]/[I:staff +1]A/[I:staff -1][AB]/[I:staff +1] B/[I:staff -1][AB]/[I:staff +1]A/[I:staff -1][AB]/ | %17
[I:staff +1] B/[I:staff -1][_A_B]/[I:staff +1]A/[I:staff -1][AB]/[I:staff +1] B/[I:staff -1][AB]/[I:staff +1]A/[I:staff -1][AB]/[I:staff +1] B/[I:staff -1][AB]/[I:staff +1]A/[I:staff -1][AB]/[I:staff +1] B/[I:staff -1][AB]/[I:staff +1]A/[I:staff -1][AB]/ | %18
[I:staff +1] B/[I:staff -1][_A_B]/[I:staff +1]A/[I:staff -1][AB]/[I:staff +1] B/[I:staff -1][AB]/[I:staff +1]A/[I:staff -1][AB]/[I:staff +1] B/[I:staff -1][AB]/[I:staff +1]A/[I:staff -1][AB]/[I:staff +1] B/[I:staff -1][AB]/[I:staff +1]A/[I:staff -1][AB]/ | %19
[I:staff +1] B/[I:staff -1][_A_B]/[I:staff +1]A/[I:staff -1][AB]/[I:staff +1] B/[I:staff -1][AB]/[I:staff +1]A/[I:staff -1][AB]/[I:staff +1] B/[I:staff -1][AB]/[I:staff +1]A/[I:staff -1][AB]/[I:staff +1] B/[I:staff -1][AB]/[I:staff +1]A/[I:staff -1][AB]/ | %20
 z8 | z8 | z2!8va(! (3(=f'e'd'"_poco" c'2 (3d'e'f' | g'8) |!pp! z2 (3(=f'e'd' c'2) (3(d'e'f' | %25
 g'=f'e'd' c'2) (3(d'e'=f' | %26
 (3g'_a'g' (3=f'e'd')!<(! (6:4:6(c'/d'/e'/f'/g'/_a'/!<)!!>(! (6:4:6_b'/a'/g'/f'/e'/d'/)!>)! | %27
!<(! (6:4:6(c'/d'/e'/=f'/g'/_a'/!<)!!>(! (6:4:6_b'/a'/g'/f'/e'/d'/)!>)!!<(! (6:4:6(c'/d'/e'/f'/g'/a'/ (6:4:6b'/a'/g'/a'/=a'/b'/!<)! | %28
!p!!>(! =b'/g'/!8va)!b/!pp!g/)!>)![I:staff +1] B/[I:staff -1]([_A_B]/[I:staff +1]=A/[I:staff -1][_AB]/[I:staff +1] =B/[I:staff -1][A_B]/[I:staff +1]=A/[I:staff -1][_AB]/[I:staff +1] =B/[I:staff -1][A_B]/[I:staff +1]=A/[I:staff -1][_AB]/ | %29
[I:staff +1] =B/[I:staff -1][_A_B]/[I:staff +1]=A/[I:staff -1][_AB]/[I:staff +1] =B/[I:staff -1][A_B]/[I:staff +1]=A/[I:staff -1][_AB]/[I:staff +1] =B/[I:staff -1][A_B]/[I:staff +1]=A/[I:staff -1][_AB]/[I:staff +1] =B/[I:staff -1][A_B]/[I:staff +1]=A/[I:staff -1][_AB]/ | %30
[I:staff +1] =B/[I:staff -1][_A_B]/[I:staff +1]=A/[I:staff -1][_AB]/[I:staff +1] =B/[I:staff -1][A_B]/[I:staff +1]=A/[I:staff -1][_AB]/[I:staff +1] =B/[I:staff -1][A_B]/[I:staff +1]=A/[I:staff -1][_AB]/[I:staff +1] =B/[I:staff -1][A_B]/[I:staff +1]=A/[I:staff -1][_AB]/ | %31
[I:staff +1] =B/[I:staff -1][_A_B]/[I:staff +1]=A/[I:staff -1][_AB]/[I:staff +1] =B/[I:staff -1][A_B]/[I:staff +1]=A/[I:staff -1][_AB]/[I:staff +1] =B/[I:staff -1][A_B]/[I:staff +1]=A/[I:staff -1][_AB]/[I:staff +1] =B/[I:staff -1][A_B]/[I:staff +1]=A/[I:staff -1][_AB]/) | %32
[I:staff +1] =B/[I:staff -1]([_A_B]/[I:staff +1]=A/[I:staff -1][_AB]/[I:staff +1] =B/[I:staff -1][A_B]/[I:staff +1]=A/[I:staff -1][_AB]/[I:staff +1] =B/[I:staff -1][A_B]/[I:staff +1]=A/[I:staff -1][_AB]/[I:staff +1] =B/[I:staff -1][A_B]/[I:staff +1]=A/[I:staff -1][_AB]/ | %33
[I:staff +1] =B/[I:staff -1][_A_B]/[I:staff +1]=A/[I:staff -1][_AB]/[I:staff +1] =B/[I:staff -1][A_B]/[I:staff +1]=A/[I:staff -1][_AB]/[I:staff +1] =B/[I:staff -1][A_B]/[I:staff +1]=A/[I:staff -1][_AB]/[I:staff +1] =B/[I:staff -1][A_B]/[I:staff +1]=A/[I:staff -1][_AB]/ | %34
[I:staff +1] =B/[I:staff -1][_A_B]/[I:staff +1]=A/[I:staff -1][_AB]/[I:staff +1] =B/[I:staff -1][A_B]/[I:staff +1]=A/[I:staff -1][_AB]/[I:staff +1] =B/[I:staff -1][A_B]/[I:staff +1]=A/[I:staff -1][_AB]/[I:staff +1] =B/[I:staff -1][A_B]/[I:staff +1]=A/[I:staff -1][_AB]/ | %35
[I:staff +1] =B/[I:staff -1][_A_B]/[I:staff +1]=A/[I:staff -1][_AB]/[I:staff +1] =B/[I:staff -1][A_B]/[I:staff +1]=A/[I:staff -1][_AB]/[I:staff +1] =B/[I:staff -1][A_B]/[I:staff +1]=A/[I:staff -1][_AB]/[I:staff +1] =B/[I:staff -1][A_B]/[I:staff +1]=A/[I:staff -1][_AB]/) | %36
[I:staff +1] =B/[I:staff -1][_A_B]/[I:staff +1]=A/[I:staff -1][_AB]/[I:staff +1] =B/[I:staff -1][A_B]/[I:staff +1]=A/[I:staff -1][_AB]/[I:staff +1] =B/[I:staff -1][A_B]/[I:staff +1]=A/[I:staff -1][_AB]/[I:staff +1] =B/[I:staff -1][A_B]/[I:staff +1]=A/[I:staff -1][_AB]/ | %37
[I:staff +1] =B/[I:staff -1][_A_B]/[I:staff +1]=A/[I:staff -1][_AB]/[I:staff +1] =B/[I:staff -1][A_B]/[I:staff +1]=A/[I:staff -1][_AB]/[I:staff +1] =B/[I:staff -1][A_B]/[I:staff +1]=A/[I:staff -1][_AB]/[I:staff +1] =B/[I:staff -1][A_B]/[I:staff +1]=A/[I:staff -1][_AB]/ | %38
[I:staff +1] =B/[I:staff -1][_A_B]/[I:staff +1]=A/[I:staff -1][_AB]/[I:staff +1] =B/[I:staff -1][A_B]/[I:staff +1]=A/[I:staff -1][_AB]/[I:staff +1] =B/[I:staff -1][A_B]/[I:staff +1]=A/[I:staff -1][_AB]/[I:staff +1] =B/[I:staff -1][A_B]/[I:staff +1]=A/[I:staff -1][_AB]/ | %39
[I:staff +1] =B/[I:staff -1][_A_B]/[I:staff +1]=A/[I:staff -1][_AB]/[I:staff +1] =B/[I:staff -1][A_B]/[I:staff +1]=A/[I:staff -1][_AB]/[I:staff +1] =B/[I:staff -1][A_B]/[I:staff +1]=A/[I:staff -1][_AB]/[I:staff +1] =B/[I:staff -1][A_B]/[I:staff +1]=A/[I:staff -1][_AB]/ | %40
[I:staff +1] =B/[I:staff -1][_A_B]/[I:staff +1]=A/[I:staff -1][_AB]/[I:staff +1] =B/[I:staff -1][A_B]/[I:staff +1]=A/[I:staff -1][_AB]/[I:staff +1] =B/[I:staff -1][A_B]/[I:staff +1]=A/[I:staff -1][_AB]/[I:staff +1] =B/[I:staff -1][A_B]/[I:staff +1]=A/[I:staff -1][_AB]/ | %41
[I:staff +1] =B/[I:staff -1][_A_B]/[I:staff +1]=A/[I:staff -1][_AB]/[I:staff +1] =B/[I:staff -1][A_B]/[I:staff +1]=A/[I:staff -1][_AB]/[I:staff +1] =B/[I:staff -1][A_B]/[I:staff +1]=A/[I:staff -1][_AB]/[I:staff +1] =B/[I:staff -1][A_B]/[I:staff +1]=A/[I:staff -1][_AB]/ | %42
[I:staff +1] =B/[I:staff -1][_A_B]/[I:staff +1]=A/[I:staff -1][_AB]/[I:staff +1] =B/[I:staff -1][A_B]/[I:staff +1]=A/[I:staff -1][_AB]/[I:staff +1] =B/[I:staff -1][A_B]/[I:staff +1]=A/[I:staff -1][_AB]/[I:staff +1] =B/[I:staff -1][A_B]/[I:staff +1]=A/[I:staff -1][_AB]/ | %43
[I:staff +1] =B/[I:staff -1][_A_B]/[I:staff +1]=A/[I:staff -1][_AB]/[I:staff +1] =B/[I:staff -1][A_B]/[I:staff +1]=A/[I:staff -1][_AB]/[I:staff +1] =B/[I:staff -1][A_B]/[I:staff +1]=A/[I:staff -1][_AB]/[I:staff +1] =B/[I:staff -1][A_B]/[I:staff +1]=A/[I:staff -1][_AB]/ | %44
[I:staff +1] =B/[I:staff -1][_A_B]/[I:staff +1]=A/[I:staff -1][_AB]/[I:staff +1] =B/[I:staff -1][A_B]/[I:staff +1]=A/[I:staff -1][_AB]/[I:staff +1] =B/[I:staff -1][A_B]/[I:staff +1]=A/[I:staff -1][_AB]/[I:staff +1] =B/[I:staff -1][A_B]/[I:staff +1]=A/[I:staff -1][_AB]/ | %45
[I:staff +1] =B/[I:staff -1][_A_B]/[I:staff +1]=A/[I:staff -1][_AB]/[I:staff +1] =B/[I:staff -1][A_B]/[I:staff +1]=A/[I:staff -1][_AB]/[I:staff +1] =B/[I:staff -1][A_B]/[I:staff +1]=A/[I:staff -1][_AB]/[I:staff +1] =B/[I:staff -1][A_B]/[I:staff +1]=A/[I:staff -1][_AB]/ | %46
[I:staff +1] =B/[I:staff -1][_A_B]/[I:staff +1]=A/[I:staff -1][_AB]/[I:staff +1] =B/[I:staff -1][A_B]/[I:staff +1]=A/[I:staff -1][_AB]/[I:staff +1] =B/[I:staff -1][A_B]/[I:staff +1]=A/[I:staff -1][_AB]/[I:staff +1] =B/[I:staff -1][A_B]/[I:staff +1]=A/[I:staff -1][_AB]/ | %47
[I:staff +1] =B/[I:staff -1][_A_B]/[I:staff +1]=A/[I:staff -1][_AB]/[I:staff +1] =B/[I:staff -1][A_B]/[I:staff +1]=A/[I:staff -1][_AB]/[I:staff +1] =B/[I:staff -1][A_B]/[I:staff +1]=A/[I:staff -1][_AB]/[I:staff +1] =B/[I:staff -1][A_B]/[I:staff +1]=A/[I:staff -1][_AB]/ | %48
[I:staff +1] =B/[I:staff -1][_A_B]/[I:staff +1]=A/[I:staff -1][_AB]/[I:staff +1] =B/[I:staff -1][A_B]/[I:staff +1]=A/[I:staff -1][_AB]/[I:staff +1] =B/[I:staff -1][A_B]/[I:staff +1]=A/[I:staff -1][_AB]/[I:staff +1] =B/[I:staff -1][A_B]/[I:staff +1]=A/[I:staff -1][_AB]/ | %49
[I:staff +1] =B/[I:staff -1][_A_B]/[I:staff +1]=A/[I:staff -1][_AB]/[I:staff +1] =B/[I:staff -1][A_B]/[I:staff +1]=A/[I:staff -1][_AB]/[I:staff +1] =B/[I:staff -1][A_B]/[I:staff +1]=A/[I:staff -1][_AB]/[I:staff +1] =B/[I:staff -1][A_B]/[I:staff +1]=A/[I:staff -1][_AB]/ | %50
[I:staff +1] =B/[I:staff -1][_A_B]/[I:staff +1]=A/[I:staff -1][_AB]/[I:staff +1] =B/[I:staff -1][A_B]/[I:staff +1]=A/[I:staff -1][_AB]/[I:staff +1] =B/[I:staff -1][A_B]/[I:staff +1]=A/[I:staff -1][_AB]/[I:staff +1] =B/[I:staff -1][A_B]/[I:staff +1]=A/[I:staff -1][_AB]/ | %51
[I:staff +1] =B/[I:staff -1][_A_B]/[I:staff +1]=A/[I:staff -1][_AB]/[I:staff +1] =B/[I:staff -1][A_B]/[I:staff +1]=A/[I:staff -1][_AB]/[I:staff +1] =B/[I:staff -1][A_B]/[I:staff +1]=A/[I:staff -1][_AB]/[I:staff +1] =B/[I:staff -1][A_B]/[I:staff +1]=A/[I:staff -1][_AB]/ | %52
[I:staff +1] =B/[I:staff -1][_A_B]/[I:staff +1]=A/[I:staff -1][_AB]/[I:staff +1] =B/[I:staff -1][A_B]/[I:staff +1]=A/[I:staff -1][_AB]/[I:staff +1] =B/[I:staff -1][A_B]/[I:staff +1]=A/[I:staff -1][_AB]/[I:staff +1] =B/[I:staff -1][A_B]/[I:staff +1]=A/[I:staff -1][_AB]/ | %53
[Q:1/4=85]"^Cédez -         -          -          -         -          -          -"[I:staff +1] =B/[Q:1/4=85]"_Cédez -         -          -          -         -          -          -"[I:staff -1][_A_B]/[I:staff +1]=A/[I:staff -1][_AB]/[I:staff +1] =B/[I:staff -1][A_B]/[I:staff +1]=A/[Q:1/4=90]"^T"[I:staff -1][_AB]/[I:staff +1] =B/[I:staff -1][A_B]/[I:staff +1]=A/[I:staff -1][_AB]/[I:staff +1] =B/[Q:1/4=85]"^T"[I:staff -1][A_B]/=A/_A/ | %54
[Q:1/4=80]!p![Q:1/4=80] (G2- (3G=Ac d>=f g2- |!<(! g=fdf d2 (3cAc!<)! |!>(! A4 G2 =F2!>)! | %57
[Q:1/4=120]"^au Mouvement"[Q:1/4=120]"_au Mouvement" G2) z2 z4 | %58
 z4 z2!p!!>(! ([gb]/[_a_b]/=a/[_ab]/)!>)! | z4!pp!!>(! ([GB][_A_B]=A[_AB])!>)! | %60
 z2 !arpeggio![G=B]2 z4 | z8 |] %62
V:2
 x8 | x8 | z8 | z8 | G8 | G8 | G8 | G8 | G8 | G8 | _B6 _A2 | _B2 c2 d2 c2 | _B4 ^F4 | G4 B4 | %14
 x2 G6 | G8 | G2 z2 G4 | G2 G2 G2 G2 | G2 z2 G4 | G2 G2 G2 G2 | z8 | %21
!pp! .[_A!courtesy!=e]"^extrêmement doux et égal".[cg] .[Ae].[cg] .[Ae].[cg] .[Ae].[cg] | %22
 .[_Ae].[cg] .[Ae].[cg]!<(! .[Ae].[cg] .[Ae].[cg] | %23
 .[_Ae]!<)!.[cg]!>(! .[Ae].[cg] .[Ae].[cg] .[Ae].[cg]!>)! | %24
 .[_Ae].[cg] .[Ae].[cg] .[Ae].[cg] .[Ae].[cg] | .[_Ae].[cg] .[Ae].[cg] .[Ae].[cg] .[Ae].[cg] | %26
 .[_Ae].[cg] .[Ae].[cg] .[Ae].[cg] .[Ae].[cg] | .[_Ae].[cg] .[Ae].[cg] .[Ae].[cg] .[Ae].[cg] | %28
 z2 G6 | !tenuto!G8 | !tenuto!G8 | G8 | G8 | x8 | G8 | x8 | G8 | G2 z2 z4 | G2 z2 z4 | G2 z2 z4 | %40
 .G z .G z .G z .G z | .G z .G z .G z .G z | .G z .G z .G z .G z | .G z .G z .G z .G z | G8 | G8 | %46
 G8 | G8 | G8 | G8 | G8 | G8 | G8 | G8 | G,2- (3G,A,C D>=F G2- | G=FDF D2 (3CA,C | A,4 G,2 =F,2 | %57
 G,2 z2 z4 | z8 | z8 | z8 |[K:bass]!pp! .[D,D]2 z2 z4 |] %62
V:3
 x8 | x8 | x8 | x8 | x8 | x8 | x8 | x8 | x8 | x8 | (_e'6 _d'2 | _e'2 =f'2 g'2 f'2) | %12
 (_e'4 [^f=b]4 | [gc']4 [b=e']4) | g'2 x6 | x8 | x8 | z2 (=f2 e2 _e2) | x8 | z2 (^f2 e2 d2) | x8 | %21
 x8 | x2!8va(! x6 | x8 | x8 | x8 | x8 | x8 | x!8va)! x7 | x8 | x8 | x8 | x8 | x8 | x8 | x8 | x8 | %37
 x8 | x8 | x8 | x8 | x8 | x8 | x8 | x8 | x8 | x8 | x8 | x8 | x8 | x8 | x8 | x8 | x8 | D4 G2 d2- | %55
 d2 B2 A2 z2 | x8 | x8 | x8 | x8 | x8 | x8 |] %62
V:4
 z8 | z8 | z8 | z8 | z2"_délicat" .f2 .^d2 .f.d | .f2 (^d4 f2) | z2 x2 x2 z2 | (^D^CDF D2 C2- | %8
 C2) z2 z4 | z8 | %10
[K:bass]!pp! _E,2[K:treble][I:staff +1] ._B,[I:staff -1].[_B,_E=F][I:staff +1] .B,[I:staff -1].E[I:staff +1] ._A,[I:staff -1].[_A,EF] | %11
[I:staff +1] ._B,[I:staff -1]._E[I:staff +1] .C[I:staff -1].[C=FG][I:staff +1] .D[I:staff -1].G[I:staff +1] .C[I:staff -1].[CFG] | %12
[I:staff +1] ._B,[I:staff -1]._E[I:staff +1] .B,[I:staff -1].[_B,E=F]!<(![I:staff +1] .^F,[I:staff -1][K:bass].=B,[I:staff +1] .F,[I:staff -1].[^F,B,^C] | %13
[I:staff +1] .G,[I:staff -1].=C[I:staff +1] .G,[I:staff -1].[G,CD][I:staff +1] .B,[I:staff -1][K:treble].=E[I:staff +1] .B,[I:staff -1].[B,EF]!<)! | %14
!pp! z2 .=F2 .D2 .F.D | =F2 (D4 F2) |!<(! (^F2 G2 F2!<)! =F2 | E2)!p!!>(! (=F2 E2!>)! _E2) | %18
!p!!<(! (^F2 G2 F2 =F2 | E2)!<)!!p!!>(! (=F2 E2!>)! D2) | %20
!pp!"_extrêmement doux et égal" (C/_E/C/E/ =E/G/E/G/ E/G/!courtesy!=E/G/ E/G/E/G/ | %21
 =E/G/E/G/ E/G/E/G/ E/G/E/G/ E/G/E/G/ | =E/G/E/G/ E/G/E/G/ E/G/E/G/ E/G/E/G/ | %23
 =E/G/E/G/ E/G/E/G/ E/G/E/G/ E/G/E/G/) | ([C=E]/[_EG]/[C=E]/[_EG]/ =E/G/E/G/ E/G/E/G/ E/G/E/G/ | %25
 =E/G/E/G/ E/G/E/G/ E/G/=E/G/ E/G/E/G/ | [C=E]/[_EG]/[C=E]/[_EG]/ =E/G/E/G/ E/G/E/G/ E/G/E/G/ | %27
 E/G/E/G/ E/G/E/G/ E/G/E/G/ E/G/E/G/) | z2!p! (=E2 B,2 D2 | ^C4 E2 F2) | E2 ^C2 B,2 A,2 | z8 | %32
[K:bass]!p! (!tenuto![G,_B,_E]8 | [_G,_B,_D]8) |!p! (!tenuto![G,_B,_E]8 | %35
!<(! [_G,_B,_D]4!<)! [=G,B,_E]4) |!mf! (!tenuto!^F2 !tenuto!^C2 !tenuto!C2 !tenuto!F2) | %37
"_dim." ([=F,A,B,E]6 [E,^G,^A,^D]2) |!p!!>(! ([=G,B,^CF]6!>)! [_G,_B,=C]2) | %39
!p!!>(! ([=F,A,=B,E]6!>)! [_F,_A,_B,]2) | x8 | %41
[K:treble]!<(! _E/=F/E/F/ E/F/E/F/ E/F/E/F/ E/F/E/F/!<)! |[K:bass] x8 | %43
[K:treble]!<(! _E/=F/E/F/ E/F/E/F/ E/F/E/F/ E/F/E/F/!<)! | %44
!p!!>(! (!tenuto!^F=FD^D)!>)!!p!!>(! (!tenuto!FEC=D)!>)! | %45
!p!!>(! (!tenuto!^F=FD^D)!>)!!p!!>(! (!tenuto!FEC=D)!>)! |!p! ^D2 (3^C^A,C z4 |!<(! ^D^CDF z4!<)! | %48
!pp! (3(^d'^c'd' (3c'^ac' (3a^da (3c'ac' | (3^d'^c'd' (3f'd'c'!<(! ^a2!<)! c'2) | %50
!>(! (!tenuto!=f'2!>)! !tenuto!^c'6- | c'2) z2 z4 |!p!!>(! (!tenuto!=f'2!>)! !tenuto!^c'6- | %53
 c'2) z2 z4 |[K:bass] z4 z2 (=D2- |!<(! D2 B,2 A,2[K:treble] (3:2:2G2 =F!<)! |!>(! _E4 C4!>)! | %57
 .D2) z2 z4 | z2!p!!<(! (3(G,A,C (3D=FG-!<)! G2) | z8 | z2[K:bass]!pp!!<(! (D=F)!<)! z4 | %61
[K:treble]!pp! [GB]2 z2 z4 |] %62
V:5
 z8 | z8 |"^doux, un peu en dehors"!p! (G8 | F4 B,4) | ^C8- | C8- | %6
 ^C2 (3(C[I:staff -1]^DF (3D[I:staff +1]C^A, (3^D,A,C) | z8 | z2 (^A,2 ^D,2 ^C,2) | %9
!>(! ^D,2 (^C,4 ^A,,2)!>)! | _E,,,2 (._E,2 .E,2 ._D,2 | ._E,2 .=F,2 .G,2 .F,2) | (_E,4 =B,,4 | %13
 =C,4 =E,4) | !tenuto!G,,,8- | G,,,2 z2 z4 | z8 | z8 | .G,,,2 z2 z4 | z8 | %20
 z4[K:treble] (C/_E/C/E/ C/E/C/E/ | C/_E/C/E/ C/E/C/E/ C/E/C/E/ C/E/C/E/ | %22
 C/_E/C/E/ C/E/C/E/ C/E/C/E/ C/E/C/E/ | C/_E/C/E/ C/E/C/E/ C/E/C/E/ C/E/C/E/) | %24
[K:bass] z2[K:treble] (C/_E/C/E/ C/E/C/E/ C/E/C/E/ | C/_E/C/E/ C/E/C/E/ C/E/C/E/ C/E/C/E/) | %26
[K:bass] z2[K:treble] (C/_E/C/E/ C/E/C/E/ C/E/C/E/ | C/_E/C/E/ C/E/C/E/ C/E/C/E/ C/E/C/E/) | %28
[K:bass] !tenuto!=E,,,8 | z8 | z8 |!>(! B,2 G,2 F,2 E,2!>)! | %32
"^mais doucement sonore" (!tenuto![_E,,_B,,_E,]8 | [_G,,_D,]8) | (!tenuto![_E,,_B,,_E,]8 | %35
 [_G,,_D,]4 [_E,,_B,,]4) | [A,,,A,,]8 | (!tenuto!G,,2 !tenuto!D,,2 !tenuto!D,,2 !tenuto!^F,,2) | %38
 (.A,,2 .E,,2 .E,,2 ._A,,2) | (.G,,2 .D,,2 .D,,2 ._G,,2) | %40
!pp! _E,,/=F,,/E,,/F,,/[I:staff -1]=B,,/^C,/B,,/C,/[I:staff +1] _E,/=F,/E,/F,/[I:staff -1]B,/^C/B,/C/ | %41
[I:staff +1] z4[K:treble] !tenuto!b2- b z | %42
[K:bass]!pp! _E,,/=F,,/E,,/F,,/[I:staff -1]=B,,/^C,/B,,/C,/[I:staff +1] _E,/=F,/E,/F,/[I:staff -1]B,/^C/B,/C/ | %43
[I:staff +1] z4[K:treble] !tenuto!b2- b z |[K:bass] .G,,,2 z2 z4 | .G,,,2 z2 z4 | %46
 z4 (3^A,^D,A, (3^CA,C | z4 ^D2 ^C2 | (3(^D^CD (3C^A,C (3A,^D,A, (3CA,C | (3^D^CD (3FDC ^A,2 C2) | %50
 (!tenuto!=F2 !tenuto!^C6- |!8vb(! C,2)!8vb)! z2 z4 | (!tenuto!=F2 !tenuto!^C6- | %53
!8vb(! C,2)!8vb)! z2 z4 | z2!p! ([G,,,G,,]2 [A,,,A,,]2 [B,,,B,,]2 | [C,,C,]4 [D,,D,]2 [_E,,_E,]2 | %56
 [=F,,=F,]4 [D,,D,]4) | z2!p! !arpeggio!.[G,,,G,,]2 !arpeggio!.[A,,,A,,]2 !arpeggio!.[C,,C,]2 | %58
 !arpeggio!.[D,,D,]2 !arpeggio!.[=F,,=F,]2 !arpeggio!.[G,,G,]2 !arpeggio!.[G,,,G,,]2 | %59
 !arpeggio!.[A,,,A,,]2 !arpeggio!.[C,,C,]2 !arpeggio!.[D,,D,]2 !arpeggio!.[=F,,=F,]2 | %60
 !arpeggio!.[D,,D,]2 z2 z4 | .[G,,,G,,]2 z2 z4 |] %62
V:6
 x8 | x8 | x8 | x8 | x8 | x8 | x8 | x8 | x8 | x6 _B,,2 | x8 | x8 | x8 | x8 | x8 | x8 | x8 | x8 | %18
 x8 | x8 | !tenuto!_A,,,8[K:treble] | x8 | x8 | x8 |[K:bass] _A,,,8[K:treble] | x8 | %26
[K:bass] _A,,,8[K:treble] | x8 |[K:bass] x8 | x8 | x8 | x8 | x8 | x8 | x8 | x8 | x8 | x8 | x8 | %39
 x8 | =B,,,8- | B,,,8[K:treble] |[K:bass] (!courtesy!=A,,,8 | _A,,,8)[K:treble] |[K:bass] x8 | x8 | %46
 x8 | x8 | x8 | x8 | x8 |!8vb(! ^D,,,8!8vb)! | x8 |!8vb(! !tenuto!.^D,,,2!8vb)! x6 | x8 | x8 | x8 | %57
 x8 | x8 | x8 | x8 | x8 |] %62
V:7
 x8 | x8 | x8 | x8 | x8 | x8 | x8 | x8 | x8 | x8 |[K:bass] ._B,._E[K:treble] x6 | x8 | %12
 x5[K:bass] x3 | x5[K:treble] x3 | x8 | x8 | x8 | x8 | x8 | x8 | x8 | x8 | x8 | x8 | x8 | x8 | x8 | %27
 x8 | x8 | x8 | x8 | x8 |[K:bass] x8 | x8 | x8 | x8 | [=G,=B,^C]8 | x8 | x8 | x8 | x8 | %41
[K:treble] x8 |[K:bass] x8 |[K:treble] x8 | x8 | x8 | x8 | x8 | x8 | x8 | x8 | x8 | x8 | x8 | %54
[K:bass] x8 | x6[K:treble] x2 | x8 | x8 | x8 | x8 | x2[K:bass] x6 |[K:treble] x8 |] %62

